X:16
T:Blackthorn Stick (reel), The
T:The Rising Sun  
B:CRE1.136 (Sean Draighnean)
F:file ID: cre.1/016black_st
S:Tommy Potts
M:C
L:1/8
%Q:180
R:reel
K:D
d2FB AFEF|Dddc BABc|dFF2 AFF2|EDCE Dgfe|
d2FB AFEF|Dddc BABc|dFF2 AFF2|EDCE D2||
(3ABc|defd egfd|A2 (3cBA eA (3cBA|defd e2fg|\
abag fdec|
defd egfd|A2 (3cBA eA (3cBA|defg abag|fdec dgfe||d8||

%%%

